Sources/FrostedUI/Resources/Icons.xcassets/arrowFatUpFilled20.imageset/arrow-fat-up-filled-20.svg

<svg width="20" height="20" viewBox="0 0 20 20" fill="none" xmlns="http://www.w3.org/2000/svg" data-fui-icon="true">
  <path
    d="M3.66096 7.44509C3.07951 8.12032 3.55923 9.16646 4.4503 9.16646H6.66664V16.8748C6.66664 17.6802 7.31956 18.3331 8.12498 18.3331H11.875C12.6804 18.3331 13.3333 17.6802 13.3333 16.8748V9.16646H15.5496C16.4407 9.16646 16.9205 8.12032 16.339 7.44509L11.105 1.36697C10.5232 0.691317 9.47671 0.691318 8.89488 1.36697L3.66096 7.44509Z"
    fill="currentColor"
  />
</svg>

<svg xmlns="http://www.w3.org/2000/svg" width="20" height="20" fill="none" data-fui-icon="true" viewBox="0 0 20 20"><path fill="currentColor" d="M3.661 7.445c-.581.675-.102 1.721.79 1.721h2.216v7.709c0 .805.653 1.458 1.458 1.458h3.75c.805 0 1.458-.653 1.458-1.458V9.166h2.217c.89 0 1.37-1.046.789-1.72l-5.234-6.079a1.458 1.458 0 0 0-2.21 0z"/></svg>
